**harm	**harte	**silbe	**rhyme	**timestamp	**phrase	**leadinstrument	**kern
*M4/4	*M4/4	*	*	*	*	*	*
*	*	*	*	*	*	*	*
*	*	*	*	*	*	*	*
*E:	*E:	*	*	*	*	*	*E:
*	*	*	*	*	*	*	*
*	*	*	*	*	*	*	*
1r;	N	.	.	0	.	r	1r;
=1	=1	=1	=1	=1	=1	=1	=1
*>Letter>A	*>Letter>A	*>Letter>A	*>Letter>A	*>Letter>A	*>Letter>A	*>Letter>A	*>Letter>A
*>Label>Intro	*>Label>Intro	*>Label>Intro	*>Label>Intro	*>Label>Intro	*>Label>Intro	*>Label>Intro	*>Label>Intro
1V	B:maj	.	.	0.209	newline	saxophone	1B 1dd# 1ff#
=2	=2	=2	=2	=2	=2	=2	=2
1IV	A:maj	.	.	1.848	.	saxophone	1A 1cc# 1ee
=3	=3	=3	=3	=3	=3	=3	=3
1I	E:maj	.	.	3.487	.	saxophone	1E 1g# 1b
=4	=4	=4	=4	=4	=4	=4	=4
1I	E:maj	.	.	5.126	.	saxophone	1E 1g# 1b
.	.	Come	.	.	.	.	.
.	.	on	.	.	.	.	.
.	.	_	.	.	.	.	.
.	.	-Ba	.	.	.	.	.
=5	=5	=5	=5	=5	=5	=5	=5
*>Letter>B	*>Letter>B	*>Letter>B	*>Letter>B	*>Letter>B	*>Letter>B	*>Letter>B	*>Letter>B
*>Label>Verse	*>Label>Verse	*>Label>Verse	*>Label>Verse	*>Label>Verse	*>Label>Verse	*>Label>Verse	*>Label>Verse
1I	E:maj	_	.	6.764	newline	voice	1E 1g# 1b
.	.	by	.	.	.	.	.
.	.	.	.	.	.	.	.
.	.	.	.	.	.	.	.
=6	=6	=6	=6	=6	=6	=6	=6
1I	E:maj	.	.	8.274	.	voice	1E 1g# 1b
.	.	lets	.	.	.	.	.
.	.	do	.	.	.	.	.
.	.	the	.	.	.	.	.
=7	=7	=7	=7	=7	=7	=7	=7
1I	E:maj	twist	A	9.783	.	voice	1E 1g# 1b
.	.	.	.	.	.	.	.
.	.	.	.	.	.	.	.
=8	=8	=8	=8	=8	=8	=8	=8
1I	E:maj	.	.	11.292	.	voice	1E 1g# 1b
.	.	Come	.	.	.	.	.
.	.	on	.	.	.	.	.
.	.	_	.	.	.	.	.
.	.	ba-	.	.	.	.	.
=9	=9	=9	=9	=9	=9	=9	=9
1IV	A:maj	_	.	12.801	newline	voice	1A 1cc# 1ee
.	.	-by	.	.	.	.	.
.	.	_	.	.	.	.	.
=10	=10	=10	=10	=10	=10	=10	=10
1IV	A:maj	.	.	14.322	.	voice	1A 1cc# 1ee
.	.	lets	.	.	.	.	.
.	.	do	.	.	.	.	.
.	.	the	.	.	.	.	.
=11	=11	=11	=11	=11	=11	=11	=11
1I	E:maj	twist	A	15.843	.	voice	1E 1g# 1b
.	.	.	.	.	.	.	.
.	.	.	.	.	.	.	.
=12	=12	=12	=12	=12	=12	=12	=12
1I	E:maj	.	.	17.364	.	voice	1E 1g# 1b
.	.	take	.	.	.	.	.
.	.	me	.	.	.	.	.
.	.	by	.	.	.	.	.
.	.	my	.	.	.	.	.
.	.	lit-	.	.	.	.	.
.	.	-tle	.	.	.	.	.
=13	=13	=13	=13	=13	=13	=13	=13
1V	B:maj	hand	.	18.885	newline	voice	1B 1dd# 1ff#
.	.	_	.	.	.	.	.
.	.	.	.	.	.	.	.
.	.	.	.	.	.	.	.
=14	=14	=14	=14	=14	=14	=14	=14
1IV	A:maj	.	.	20.411	.	voice	1A 1cc# 1ee
.	.	and	.	.	.	.	.
.	.	go	.	.	.	.	.
.	.	_	.	.	.	.	.
.	.	like	.	.	.	.	.
=15	=15	=15	=15	=15	=15	=15	=15
1I	E:maj	this	A	21.937	.	voice	1E 1g# 1b
.	.	.	.	.	.	.	.
.	.	.	.	.	.	.	.
.	.	Ee	.	.	.	.	.
=16	=16	=16	=16	=16	=16	=16	=16
1I	E:maj	_	.	23.463	.	voice	1E 1g# 1b
.	.	ya	.	.	.	.	.
.	.	_	.	.	.	.	.
=17	=17	=17	=17	=17	=17	=17	=17
*>Letter>B	*>Letter>B	*>Letter>B	*>Letter>B	*>Letter>B	*>Letter>B	*>Letter>B	*>Letter>B
*>Label>Chorus	*>Label>Chorus	*>Label>Chorus	*>Label>Chorus	*>Label>Chorus	*>Label>Chorus	*>Label>Chorus	*>Label>Chorus
1I	E:maj	Twist	A	24.989	newline	voice	1E 1g# 1b
.	.	.	.	.	.	.	.
.	.	.	.	.	.	.	.
.	.	-ba-	.	.	.	.	.
=18	=18	=18	=18	=18	=18	=18	=18
1I	E:maj	_	.	26.51	.	voice	1E 1g# 1b
.	.	-by	.	.	.	.	.
.	.	ba-	.	.	.	.	.
.	.	_	.	.	.	.	.
.	.	by	.	.	.	.	.
=19	=19	=19	=19	=19	=19	=19	=19
1I	E:maj	twist	A	28.031	.	voice	1E 1g# 1b
.	.	.	.	.	.	.	.
.	.	.	.	.	.	.	.
=20	=20	=20	=20	=20	=20	=20	=20
1I	E:maj	Ooh	.	29.552	.	voice	1E 1g# 1b
.	.	_	.	.	.	.	.
.	.	_	.	.	.	.	.
.	.	yeah	.	.	.	.	.
=21	=21	=21	=21	=21	=21	=21	=21
1IV	A:maj	_	.	31.073	newline	voice	1A 1cc# 1ee
.	.	_	.	.	.	.	.
.	.	_	.	.	.	.	.
.	.	_	.	.	.	.	.
=22	=22	=22	=22	=22	=22	=22	=22
1IV	A:maj	.	.	32.577	.	voice	1A 1cc# 1ee
.	.	.	.	.	.	.	.
.	.	just	.	.	.	.	.
.	.	like	.	.	.	.	.
=23	=23	=23	=23	=23	=23	=23	=23
1I	E:maj	this	A	34.081	.	voice	1E 1g# 1b
.	.	_	.	.	.	.	.
.	.	.	.	.	.	.	.
.	.	.	.	.	.	.	.
=24	=24	=24	=24	=24	=24	=24	=24
1I	E:maj	.	.	35.586	.	voice	1E 1g# 1b
.	.	Come	.	.	.	.	.
.	.	on	.	.	.	.	.
.	.	lit-	.	.	.	.	.
.	.	-tle	.	.	.	.	.
.	.	miss	A	.	.	.	.
=25	=25	=25	=25	=25	=25	=25	=25
1V	B:maj	_	.	37.09	newline	voice	1B 1dd# 1ff#
.	.	.	.	.	.	.	.
.	.	.	.	.	.	.	.
=26	=26	=26	=26	=26	=26	=26	=26
1IV	A:maj	.	.	38.619	.	voice	1A 1cc# 1ee
.	.	and	.	.	.	.	.
.	.	do	.	.	.	.	.
.	.	_	.	.	.	.	.
.	.	the	.	.	.	.	.
=27	=27	=27	=27	=27	=27	=27	=27
1I	E:maj	twist	A	40.149	.	voice	1E 1g# 1b
.	.	.	.	.	.	.	.
.	.	.	.	.	.	.	.
=28	=28	=28	=28	=28	=28	=28	=28
1I	E:maj	.	.	41.678	.	voice	1E 1g# 1b
.	.	My	.	.	.	.	.
.	.	da-	.	.	.	.	.
.	.	-ddy	.	.	.	.	.
.	.	is	.	.	.	.	.
.	.	sleep-	.	.	.	.	.
=29	=29	=29	=29	=29	=29	=29	=29
*>Letter>B	*>Letter>B	*>Letter>B	*>Letter>B	*>Letter>B	*>Letter>B	*>Letter>B	*>Letter>B
*>Label>Verse	*>Label>Verse	*>Label>Verse	*>Label>Verse	*>Label>Verse	*>Label>Verse	*>Label>Verse	*>Label>Verse
1I	E:maj	_	.	43.208	newline	voice	1E 1g# 1b
.	.	-in	.	.	.	.	.
.	.	_	.	.	.	.	.
.	.	.	.	.	.	.	.
.	.	.	.	.	.	.	.
=30	=30	=30	=30	=30	=30	=30	=30
1I	E:maj	.	.	44.736	.	voice	1E 1g# 1b
.	.	and	.	.	.	.	.
.	.	ma-	.	.	.	.	.
.	.	-ma	.	.	.	.	.
.	.	ain't	.	.	.	.	.
.	.	a-	.	.	.	.	.
.	.	-round	B	.	.	.	.
=31	=31	=31	=31	=31	=31	=31	=31
1I	E:maj	_	.	46.264	.	voice	1E 1g# 1b
.	.	_	.	.	.	.	.
.	.	.	.	.	.	.	.
.	.	.	.	.	.	.	.
.	.	yeah	.	.	.	.	.
=32	=32	=32	=32	=32	=32	=32	=32
1I	E:maj	_	.	47.792	.	voice	1E 1g# 1b
.	.	.	.	.	.	.	.
.	.	Da-	.	.	.	.	.
.	.	-ddy	.	.	.	.	.
.	.	just	.	.	.	.	.
.	.	slee-	.	.	.	.	.
=33	=33	=33	=33	=33	=33	=33	=33
1IV	A:maj	_	.	49.32	newline	voice	1A 1cc# 1ee
.	.	pin'	.	.	.	.	.
.	.	_	.	.	.	.	.
=34	=34	=34	=34	=34	=34	=34	=34
1IV	A:maj	.	.	50.826	.	voice	1A 1cc# 1ee
.	.	and	.	.	.	.	.
.	.	ma-	.	.	.	.	.
.	.	-ma	.	.	.	.	.
.	.	ain't	.	.	.	.	.
.	.	a-	.	.	.	.	.
.	.	-round	B	.	.	.	.
=35	=35	=35	=35	=35	=35	=35	=35
1I	E:maj	_	.	52.332	.	voice	1E 1g# 1b
.	.	.	.	.	.	.	.
.	.	.	.	.	.	.	.
=36	=36	=36	=36	=36	=36	=36	=36
1I	E:maj	.	.	53.838	.	voice	1E 1g# 1b
.	.	we're	.	.	.	.	.
.	.	gon-	.	.	.	.	.
.	.	-na	.	.	.	.	.
.	.	twist	A	.	.	.	.
.	.	it	.	.	.	.	.
.	.	twist	A	.	.	.	.
.	.	it	.	.	.	.	.
=37	=37	=37	=37	=37	=37	=37	=37
1V	B:maj	_	.	55.344	newline	voice	1B 1dd# 1ff#
.	.	twist-	A	.	.	.	.
.	.	-in	.	.	.	.	.
.	.	.	.	.	.	.	.
=38	=38	=38	=38	=38	=38	=38	=38
1IV	A:maj	.	.	56.872	.	voice	1A 1cc# 1ee
.	.	till	.	.	.	.	.
.	.	we	.	.	.	.	.
.	.	tear	.	.	.	.	.
.	.	the	.	.	.	.	.
.	.	house	.	.	.	.	.
.	.	down	B	.	.	.	.
=39	=39	=39	=39	=39	=39	=39	=39
1I	E:maj	_	.	58.4	.	voice	1E 1g# 1b
.	.	.	.	.	.	.	.
.	.	.	.	.	.	.	.
.	.	Come	.	.	.	.	.
=40	=40	=40	=40	=40	=40	=40	=40
1I	E:maj	_	.	59.928	.	voice	1E 1g# 1b
.	.	on	.	.	.	.	.
.	.	_	.	.	.	.	.
.	.	and	.	.	.	.	.
=41	=41	=41	=41	=41	=41	=41	=41
*>Letter>B	*>Letter>B	*>Letter>B	*>Letter>B	*>Letter>B	*>Letter>B	*>Letter>B	*>Letter>B
*>Label>Chorus	*>Label>Chorus	*>Label>Chorus	*>Label>Chorus	*>Label>Chorus	*>Label>Chorus	*>Label>Chorus	*>Label>Chorus
1I	E:maj	Twist	A	61.456	newline	voice	1E 1g# 1b
.	.	.	.	.	.	.	.
.	.	.	.	.	.	.	.
.	.	yeah	.	.	.	.	.
=42	=42	=42	=42	=42	=42	=42	=42
1I	E:maj	_	.	62.985	.	voice	1E 1g# 1b
.	.	.	.	.	.	.	.
.	.	ba-	.	.	.	.	.
.	.	_	.	.	.	.	.
.	.	-by	.	.	.	.	.
=43	=43	=43	=43	=43	=43	=43	=43
1I	E:maj	twist	A	64.514	.	voice	1E 1g# 1b
.	.	.	.	.	.	.	.
.	.	.	.	.	.	.	.
=44	=44	=44	=44	=44	=44	=44	=44
1I	E:maj	Ooh	.	66.043	.	voice	1E 1g# 1b
.	.	_	.	.	.	.	.
.	.	_	.	.	.	.	.
.	.	yeah	.	.	.	.	.
=45	=45	=45	=45	=45	=45	=45	=45
1IV	A:maj	_	.	67.572	newline	voice	1A 1cc# 1ee
.	.	_	.	.	.	.	.
.	.	_	.	.	.	.	.
.	.	_	.	.	.	.	.
=46	=46	=46	=46	=46	=46	=46	=46
1IV	A:maj	.	.	69.094	.	voice	1A 1cc# 1ee
.	.	.	.	.	.	.	.
.	.	just	.	.	.	.	.
.	.	like	.	.	.	.	.
=47	=47	=47	=47	=47	=47	=47	=47
1I	E:maj	this	A	70.616	.	voice	1E 1g# 1b
.	.	_	.	.	.	.	.
.	.	.	.	.	.	.	.
.	.	.	.	.	.	.	.
=48	=48	=48	=48	=48	=48	=48	=48
1I	E:maj	.	.	72.138	.	voice	1E 1g# 1b
.	.	Come	.	.	.	.	.
.	.	on	.	.	.	.	.
.	.	lit-	.	.	.	.	.
.	.	-tle	.	.	.	.	.
.	.	miss	A	.	.	.	.
=49	=49	=49	=49	=49	=49	=49	=49
1V	B:maj	_	.	73.66	newline	voice	1B 1dd# 1ff#
.	.	.	.	.	.	.	.
.	.	.	.	.	.	.	.
=50	=50	=50	=50	=50	=50	=50	=50
1IV	A:maj	.	.	75.173	.	voice	1A 1cc# 1ee
.	.	and	.	.	.	.	.
.	.	do	.	.	.	.	.
.	.	_	.	.	.	.	.
.	.	the	.	.	.	.	.
=51	=51	=51	=51	=51	=51	=51	=51
1I	E:maj	twist	A	76.687	.	voice	1E 1g# 1b
.	.	.	.	.	.	.	.
.	.	.	.	.	.	.	.
.	.	Ee	.	.	.	.	.
=52	=52	=52	=52	=52	=52	=52	=52
1I	E:maj	_	.	78.2	.	voice	1E 1g# 1b
.	.	ya	.	.	.	.	.
.	.	_	.	.	.	.	.
=53	=53	=53	=53	=53	=53	=53	=53
*>Letter>B	*>Letter>B	*>Letter>B	*>Letter>B	*>Letter>B	*>Letter>B	*>Letter>B	*>Letter>B
*>Label>Solo	*>Label>Solo	*>Label>Solo	*>Label>Solo	*>Label>Solo	*>Label>Solo	*>Label>Solo	*>Label>Solo
1I	E:maj	.	.	79.713	newline	saxophone	1E 1g# 1b
=54	=54	=54	=54	=54	=54	=54	=54
1I	E:maj	.	.	81.24	.	saxophone	1E 1g# 1b
=55	=55	=55	=55	=55	=55	=55	=55
1I	E:maj	.	.	82.767	.	saxophone	1E 1g# 1b
=56	=56	=56	=56	=56	=56	=56	=56
1I	E:maj	.	.	84.294	.	saxophone	1E 1g# 1b
=57	=57	=57	=57	=57	=57	=57	=57
1IV	A:maj	.	.	85.821	newline	saxophone	1A 1cc# 1ee
=58	=58	=58	=58	=58	=58	=58	=58
1IV	A:maj	.	.	87.351	.	saxophone	1A 1cc# 1ee
=59	=59	=59	=59	=59	=59	=59	=59
1I	E:maj	.	.	88.881	.	saxophone	1E 1g# 1b
=60	=60	=60	=60	=60	=60	=60	=60
1I	E:maj	.	.	90.411	.	saxophone	1E 1g# 1b
=61	=61	=61	=61	=61	=61	=61	=61
1V	B:maj	.	.	91.941	newline	saxophone	1B 1dd# 1ff#
=62	=62	=62	=62	=62	=62	=62	=62
1IV	A:maj	.	.	93.454	.	saxophone	1A 1cc# 1ee
=63	=63	=63	=63	=63	=63	=63	=63
1I	E:maj	.	.	94.967	.	saxophone	1E 1g# 1b
=64	=64	=64	=64	=64	=64	=64	=64
1I	E:maj	Yeah	.	96.48	.	saxophone	1E 1g# 1b
.	.	you	.	.	.	.	.
.	.	should	.	.	.	.	.
.	.	see	.	.	.	.	.
=65	=65	=65	=65	=65	=65	=65	=65
*>Letter>B	*>Letter>B	*>Letter>B	*>Letter>B	*>Letter>B	*>Letter>B	*>Letter>B	*>Letter>B
*>Label>Verse	*>Label>Verse	*>Label>Verse	*>Label>Verse	*>Label>Verse	*>Label>Verse	*>Label>Verse	*>Label>Verse
1I	E:maj	_	.	97.993	newline	voice	1E 1g# 1b
.	.	_	.	.	.	.	.
.	.	_	.	.	.	.	.
.	.	_	.	.	.	.	.
=66	=66	=66	=66	=66	=66	=66	=66
1I	E:maj	.	.	99.533	.	voice	1E 1g# 1b
.	.	.	.	.	.	.	.
.	.	my	.	.	.	.	.
.	.	lit-	.	.	.	.	.
.	.	-tle	.	.	.	.	.
.	.	sis	A	.	.	.	.
=67	=67	=67	=67	=67	=67	=67	=67
1I	E:maj	_	.	101.073	.	voice	1E 1g# 1b
.	.	.	.	.	.	.	.
.	.	.	.	.	.	.	.
.	.	.	.	.	.	.	.
=68	=68	=68	=68	=68	=68	=68	=68
1I	E:maj	.	.	102.614	.	voice	1E 1g# 1b
.	.	.	.	.	.	.	.
.	.	you	.	.	.	.	.
.	.	should	.	.	.	.	.
.	.	see	.	.	.	.	.
=69	=69	=69	=69	=69	=69	=69	=69
1IV	A:maj	_	.	104.154	newline	voice	1A 1cc# 1ee
.	.	my	.	.	.	.	.
.	.	_	.	.	.	.	.
=70	=70	=70	=70	=70	=70	=70	=70
1IV	A:maj	.	.	105.663	.	voice	1A 1cc# 1ee
.	.	.	.	.	.	.	.
.	.	my	.	.	.	.	.
.	.	_	.	.	.	.	.
.	.	lit-	.	.	.	.	.
.	.	-tle	.	.	.	.	.
.	.	sis	A	.	.	.	.
=71	=71	=71	=71	=71	=71	=71	=71
1I	E:maj	.	.	107.172	.	voice	1E 1g# 1b
=72	=72	=72	=72	=72	=72	=72	=72
1I	E:maj	.	.	108.681	.	voice	1E 1g# 1b
.	.	she	.	.	.	.	.
.	.	rea-	.	.	.	.	.
.	.	-lly	.	.	.	.	.
.	.	knows	.	.	.	.	.
.	.	_	.	.	.	.	.
.	.	how	.	.	.	.	.
.	.	to	.	.	.	.	.
=73	=73	=73	=73	=73	=73	=73	=73
1V	B:maj	rock	.	110.19	newline	voice	1B 1dd# 1ff#
.	.	_	.	.	.	.	.
.	.	.	.	.	.	.	.
.	.	.	.	.	.	.	.
=74	=74	=74	=74	=74	=74	=74	=74
1IV	A:maj	.	.	111.73	.	voice	1A 1cc# 1ee
.	.	she	.	.	.	.	.
.	.	knows	.	.	.	.	.
.	.	_	.	.	.	.	.
.	.	how	.	.	.	.	.
.	.	to	.	.	.	.	.
=75	=75	=75	=75	=75	=75	=75	=75
1I	E:maj	twist	A	113.269	.	voice	1E 1g# 1b
.	.	.	.	.	.	.	.
.	.	.	.	.	.	.	.
.	.	Come	.	.	.	.	.
=76	=76	=76	=76	=76	=76	=76	=76
1I	E:maj	_	.	114.809	.	voice	1E 1g# 1b
.	.	on	.	.	.	.	.
.	.	_	.	.	.	.	.
.	.	and	.	.	.	.	.
=77	=77	=77	=77	=77	=77	=77	=77
*>Letter>B	*>Letter>B	*>Letter>B	*>Letter>B	*>Letter>B	*>Letter>B	*>Letter>B	*>Letter>B
*>Label>Chorus	*>Label>Chorus	*>Label>Chorus	*>Label>Chorus	*>Label>Chorus	*>Label>Chorus	*>Label>Chorus	*>Label>Chorus
1I	E:maj	Twist	A	116.348	newline	voice	1E 1g# 1b
.	.	.	.	.	.	.	.
.	.	.	.	.	.	.	.
.	.	yeah	.	.	.	.	.
=78	=78	=78	=78	=78	=78	=78	=78
1I	E:maj	_	.	117.878	.	voice	1E 1g# 1b
.	.	.	.	.	.	.	.
.	.	ba-	.	.	.	.	.
.	.	_	.	.	.	.	.
.	.	-by	.	.	.	.	.
=79	=79	=79	=79	=79	=79	=79	=79
1I	E:maj	twist	A	119.408	.	voice	1E 1g# 1b
.	.	.	.	.	.	.	.
.	.	.	.	.	.	.	.
.	.	Ooh	.	.	.	.	.
=80	=80	=80	=80	=80	=80	=80	=80
1I	E:maj	_	.	120.937	.	voice	1E 1g# 1b
.	.	_	.	.	.	.	.
.	.	_	.	.	.	.	.
.	.	yeah	.	.	.	.	.
=81	=81	=81	=81	=81	=81	=81	=81
1IV	A:maj	_	.	122.467	newline	voice	1A 1cc# 1ee
.	.	_	.	.	.	.	.
.	.	_	.	.	.	.	.
.	.	_	.	.	.	.	.
=82	=82	=82	=82	=82	=82	=82	=82
1IV	A:maj	.	.	124.001	.	voice	1A 1cc# 1ee
.	.	.	.	.	.	.	.
.	.	just	.	.	.	.	.
.	.	like	.	.	.	.	.
=83	=83	=83	=83	=83	=83	=83	=83
1I	E:maj	this	A	125.535	.	voice	1E 1g# 1b
.	.	_	.	.	.	.	.
.	.	.	.	.	.	.	.
.	.	.	.	.	.	.	.
=84	=84	=84	=84	=84	=84	=84	=84
1I	E:maj	.	.	127.069	.	voice	1E 1g# 1b
.	.	Come	.	.	.	.	.
.	.	on	.	.	.	.	.
.	.	lit-	.	.	.	.	.
.	.	-tle	.	.	.	.	.
.	.	miss	A	.	.	.	.
=85	=85	=85	=85	=85	=85	=85	=85
1V	B:maj	_	.	128.603	newline	voice	1B 1dd# 1ff#
.	.	.	.	.	.	.	.
.	.	.	.	.	.	.	.
=86	=86	=86	=86	=86	=86	=86	=86
1IV	A:maj	.	.	130.137	.	voice	1A 1cc# 1ee
.	.	and	.	.	.	.	.
.	.	do	.	.	.	.	.
.	.	_	.	.	.	.	.
.	.	the	.	.	.	.	.
=87	=87	=87	=87	=87	=87	=87	=87
1I	E:maj	twist	A	131.671	.	voice	1E 1g# 1b
.	.	.	.	.	.	.	.
.	.	.	.	.	.	.	.
=88	=88	=88	=88	=88	=88	=88	=88
1I	E:maj	.	.	133.205	.	voice	1E 1g# 1b
.	.	.	.	.	.	.	.
.	.	.	.	.	.	.	.
.	.	Yeah	.	.	.	.	.
=89	=89	=89	=89	=89	=89	=89	=89
*>Letter>B	*>Letter>B	*>Letter>B	*>Letter>B	*>Letter>B	*>Letter>B	*>Letter>B	*>Letter>B
*>Label>Chorus	*>Label>Chorus	*>Label>Chorus	*>Label>Chorus	*>Label>Chorus	*>Label>Chorus	*>Label>Chorus	*>Label>Chorus
1I	E:maj	_	.	134.739	newline	voice	1E 1g# 1b
.	.	.	.	.	.	.	.
.	.	.	.	.	.	.	.
.	.	.	.	.	.	.	.
=90	=90	=90	=90	=90	=90	=90	=90
1I	E:maj	.	.	136.271	.	voice	1E 1g# 1b
.	.	.	.	.	.	.	.
.	.	.	.	.	.	.	.
.	.	rock	.	.	.	.	.
=91	=91	=91	=91	=91	=91	=91	=91
1I	E:maj	_	.	137.804	.	voice	1E 1g# 1b
.	.	on	.	.	.	.	.
.	.	now	.	.	.	.	.
.	.	_	.	.	.	.	.
.	.	.	.	.	.	.	.
=92	=92	=92	=92	=92	=92	=92	=92
1I	E:maj	.	.	139.336	.	voice	1E 1g# 1b
=93	=93	=93	=93	=93	=93	=93	=93
1IV	A:maj	.	.	140.869	newline	voice	1A 1cc# 1ee
.	.	.	.	.	.	.	.
.	.	.	.	.	.	.	.
.	.	yeah	.	.	.	.	.
=94	=94	=94	=94	=94	=94	=94	=94
1IV	A:maj	_	.	142.395	.	voice	1A 1cc# 1ee
.	.	_	.	.	.	.	.
.	.	_	.	.	.	.	.
.	.	.	.	.	.	.	.
=95	=95	=95	=95	=95	=95	=95	=95
1I	E:maj	.	.	143.922	.	voice	1E 1g# 1b
.	.	.	.	.	.	.	.
.	.	.	.	.	.	.	.
.	.	twist	A	.	.	.	.
=96	=96	=96	=96	=96	=96	=96	=96
1I	E:maj	_	.	145.448	.	voice	1E 1g# 1b
.	.	on	.	.	.	.	.
.	.	down	.	.	.	.	.
.	.	_	.	.	.	.	.
.	.	.	.	.	.	.	.
=97	=97	=97	=97	=97	=97	=97	=97
1V	B:maj	.	.	146.974	newline	voice	1B 1dd# 1ff#
.	.	.	.	.	.	.	.
.	.	.	.	.	.	.	.
.	.	twist	A	.	.	.	.
=98	=98	=98	=98	=98	=98	=98	=98
1IV	A:maj	_	.	148.508	.	voice	1A 1cc# 1ee
.	.	_	.	.	.	.	.
.	.	_	.	.	.	.	.
=99	=99	=99	=99	=99	=99	=99	=99
1I	E:maj	.	.	150.042	.	voice	1E 1g# 1b
=100	=100	=100	=100	=100	=100	=100	=100
1I	E:1	.	.	151.577	.	voice	1E 1g# 1b
1r;	N	.	.	153.111	.	r	1r;
1r;	N	.	.	156.299	.	r	1r;
*-	*-	*-	*-	*-	*-	*-	*-
!!!BillboardChartDate: 1962/03/17, 1962/03/24
!!!BillboardPeak: 1, 1
!!!BillboardWeeksOnChart: 38, 38
!!!COC: Chubby Checker
!!!ENC: Nathaniel Condit-Schultz
!!!EST: Awating manual error checking and editing.
!!!OTL: The Twist
!!!RDF**harte: Chris Harte's syntax, used by MIREX
!!!RDF**harmony: **recip + pitch class of root + harmonic quality
!!!RDF**leadinstrument: original McGill primary instrumentation annotation
!!!RDF**phrase: newline = linebreak in original McGill transcription
!!!RDF**timestamp: McGill audio timestamp in seconds
!!!RDT: 2017/01/12/
!!!SampleActualRank: 24, 32
!!!SampleID#: 948, 1103
!!!SampleTargetRank: 25, 31
!!!MBID: 6f97ce0a-fbb9-430c-8d02-d61228b47a61
